X:11
T:Miss Sparks's Maggot. JJo8.011
%%VWML:JohnsonVol8-2184-p6-0
F:http://www.vwml.org/record/JohnsonVol8/2184/p6
Z:Transcribed by Simon Furey and Lewis Jones
Z:vmp.Simon Wilson 2013 www.village-music-project.org.uk
Z:Dance added by John Chambers 2017
M:6/8
L:1/8
%Q:3/8=120
K:G
|:\
GAB ABc | B2dB2G | ABc def | g3d2B |\
GAB ABc | B2d^c2A | def ge^c | d3D3 :|
|:\
{e}d^cd {e}d^cd | D2d =c2B | cde ABc | BAG FED |\
{a}gfg {a}gfg | gfe dcB | ABc BcA | G3G,3 :|
W: Lead thro' the 2d Cu. cast up and foot it at top .|
W:Cast off. Lead thro' the Bottom and cast up :| Right
W:Hands across at Bottom :||. Right Hands and
W:Left at top :||: foot it at both Corners and turn :|
W:Lead out on both Sides and turn :||:
W:
T:Riddle. JJo8.012, The
B:J.Johnson Choice Collection Vol 8 1758
Z:vmp.Simon Wilson 2013 www.village-music-project.org.uk
Z:Dance added by John Chambers 2017
M:C|
L:1/8
%Q:1/2=90
K:A
|: c |\
((3ABA) cA eBGE | ((3ABA) cA Bcdf |\
edca (ec)(ac) | (dB)(ec) A/A/AA :|
|: c |\
((3ABA) (ae) (fe) (ae) | (dc)(ac) B/B/B Bc |\
defga2ec | dBec A/A/AA :|
W: Half figure down on your own Sides .|
W:Lead up to the Top and cast off :| Set 3
W:Sides the Man cast down the Wo up :||.
W:Set 3 Top and Bottom the Wo. cast
W:down and the Man up :||:
W:
